!!!COM: Schubert, Franz
!!!CNT: Deutscher
!!!TXO: Deutsch
!!!LYR: Karoline Pichler
!!!OTL: "Der Unglu2ckliche"
!!!OPS: Op. 87
!!!ONM: No. 1
!!!ODT: 1821/
!!NB: Vocal melody only encoded.
!!NB: Original key: b minor
**kern	**silbe
*staff1	*
*clefG2	*
*k[]	*
*M6/8	*
*MM[Langsam]	*
=7	=7
4r	.
8r	.
4r	.
{8c	{Die
=8	=8
4.c	Nacht
4.d	bricht
=9	=9
[4.e	an,
8e]}	|}
8r	.
{8e	{mit
=10	=10
4a	lei-
8a	-sen
8cc	Lu2f-
8b	|
8a	-ten
=11	=11
4g	sin-
8e	-ket
4.e}	sie}
=12	=12
2.r	.
=13	=13
{[4.g	{auf
8g]	|
8b	|
8dd	die
=14	=14
4dd	mu2-
8cc	-den
8.b	Sterb-
16cc	-li-
16g	-chen
16e	her-
=15	=15
4.d}	-ab;}
4r	.
8r	.
=16	=16
2.r	.
=17	=17
4r	.
8r	.
4r	.
{8e	{der
=18	=18
4c	sanf-
8e	|
4d	-te
8f	|
=19	=19
[4.e	Schlaf,
8e]}	|}
8r	.
{8e	{des
=20	=20
4a	To-
8a	-des
8cc	Bru-
8b	|
8a	-der
=21	=21
4.g	win-
8e}	-ket}
8r	.
8r	.
=22	=22
4r	.
8r	.
4r	.
{8e	{und
=23	=23
[4.e	legt
8e]	|
8g#	|
8b	sie
=24	=24
4b	freund-
8a	-lich
8.cc#	in
16g#	|
16a	ihr
16f#	|
=25	=25
[4.e	ta2g-
4e]	|
8g#	-lich
=26	=26
4.a}	Grab,}
4r	.
{8e	{und
=27	=27
[4.e	legt
8e]	|
8g#	|
8b	sie
=28	=28
4b	freund-
8b	-lich
8.cc#	in
16g#	|
16a	ihr
16f#	|
=29	=29
[4.e	ta2g-
4e]	|
8g#	-lich
=30	=30
4.a}	Grab.}
4r	.
8r	.
=31	=31
2.r	.
=32	=32
2.r	.
=33	=33
4r	.
8r	.
4r	.
{8f	{jetzet
=34	=34
4f	wa-
8f	-chet
4f	auf
8f	der
=35	=35
4a-	licht-
8a-	-be-
4a-	-raub-
8c-	-ten
=36	=36
4.B-	Er-
8B-}	-de}
8r	.
{8g-	{viel-
=37	=37
4g-	-leicht
8g-	nur
4g-	noch
8g-	die
=38	=38
4a	Arg-
8a	-list
8.cc	und
16a	|
16f#	der
16c	|
=39	=39
4.B}	Schmerz,}
4r	.
{8g	{und
=40	=40
4.g	jetzt,
8g	da
8g	ich
8g	durch
=41	=41
4a-	nochts
8a-	ge-
4a-	-sto2-
8a-	-ret
=42	=42
4.a-	wer-
4.f-}	-de,}
=43	=43
{4.a	{lass
4a	dei-
8a	-ne
=44	=44
[4.dd	Wun-
8dd]	|
8b-	|
16a	-den
16g	|
=45	=45
[4.cc	blu-
4cc]	|
8f	-ten,
=46	=46
[4.b-	ar-
4b-]	|
8e	-mes
=47	=47
4.f}	Herz!}
4r	.
8r	.
=48	=48
4r	.
8r	.
4r	.
{8cc	{Ver-
=49	=49
4cc	-sen-
8d-	-ke
4d-	dich
8d-	in
=50	=50
4c	dei-
8e	-nes
8g	Kum-
8cc	|
8b-	-mers
=51	=51
4g	Tie-
8a-	|
4.a-}	-fen,}
=52	=52
4r	.
8r	.
4r	.
{8ee-	{ver-
=53	=53
4ee-	-sen-
8f-	-de
4f-	dich
8f-	in
=54	=54
4e-	dei-
8g	-nes
8b-	Kum-
8ee-	|
8dd-	-mers
=55	=55
4b-	Tie-
8cc-	|
4.cc-}	-fen,}
=56	=56
4r	.
{8cc-	{und
8cc-	wann
8b-	|
8a-	viel-
=57	=57
4g	-leicht
8g	in
8g	der
8a-	|
8b-	zer-
=58	=58
dd-q	-riss'-
8cc-	|
8b-	|
8a-	-nen
4.g}	Brust}
=59	=59
{4a-	{halb
8e-	ver-
4b-	-ja2hr-
8e-	-te
=60	=60
[4.cc-	Lei-
8cc-]	|
8ee-	|
8dd-	-den
=61	=61
4.cc-	schlie-
4.b-}	-fen,}
=62	=62
4r	.
8r	.
4r	.
{8b-	{so
=63	=63
[4.dd-	we-
16dd-]	|
16b-	-cke
4b-	sie,
=64	=64
[4dd-	we-
16dd-]	|
16b-	-cke
4b-	sie
8cc#	mit
=65	=65
4.dd	grau-
4.cc	-sam
=66	=66
4.b	su2-
8dd	|
8cc	|
8a	-sser
=67	=67
4.g}	Lust.}
4r	.
{8g	{Be-
=68	=68
a-q	-rech-
4g	|
8g	-ne
8r	.
8g	die
8g	ver-
=69	=69
4b-	-lor'-
8b-	-nen
8b-	Se-
8cc	|
8a-	-lig-
=70	=70
4.g	-kei-
4f}	-ten,}
{8b-	{be-
=71	=71
cc-q	-rech-
4b-	|
8b-	-ne
8r	.
8b-	die
8b-	ver-
=72	=72
4dd-	-lor'-
8dd-	-nen
8dd-	Se-
8ee-	|
8cc-	-lig-
=73	=73
4.b-	-kei-
4a-}	-ten,}
{8a-	{za2hl'
=74	=74
4cc-	al-
8a-	-le,
4ccn	al-
8an	-le
=75	=75
4.dd-	Blu-
4b-}	-men}
8r	.
=76	=76
{4cc-	{in
8a-	dem
4ccn	Pa-
8an	-ra-
=77	=77
[4.dd-	-dies,
4dd-]}	|}
{8dd-	{wo-
=78	=78
4dd	-raus
8dd	in
8.dd	dei-
16ee	|
8dd	-ner
=79	=79
4.dd	Ju-
4.b	-gend
=80	=80
4.cc	gold-
8.cc#	|
16dd	|
8ee	-nen
=81	=81
4ee	Zei-
8dd	|
4b}	-ten}
{8dd	{die
=82	=82
[4.ee-	har-
4ee-]	|
8e-	-te
=83	=83
4.d	Hand
4d	|
8d	des
=84	=84
4e-	Schick-
8e-	-sals
4f	dich
8f	ver-
=85	=85
4.B-}	-steiss!}
4r	.
8r	.
=93	=93
4r	.
{8e	{Du
4a	hast
8a	ge-
=94	=94
4.a	-liebt,
8g#	|
8r	.
8e	du
=95	=95
4e	hast
8e	das
8e	Glu2ck
8g#	|
8b	em-
=96	=96
4.b	pfun-
4.a}	-den,}
=97	=97
4r	.
8r	.
4r	.
{8cc#	{dem
=98	=98
4.ee	je-
8dd}	-de,}
8r	.
8r	.
=99	=99
{[4.dd	{je-
4dd]	|
8cc#	-de
=100	=100
4cc#	Se-
8b	-lig-
8b	-keit
8a	|
8g#	der
=101	=101
[4.cc#	Er-
4cc#]	|
8c#	-de
=102	=102
4.f#}	weicht.}
4r	.
8r	.
=103	=103
2.r	.
=104	=104
4r	.
{8e	{Du
4a	hast
8a	ein
=105	=105
4.a	Herz,
8g#	|
8r	.
8b	das
=106	=106
8dd	dich
8b	|
8g#	ver-
8e	-stand,
8g#	|
8b	ge-
=107	=107
4.b	-fun-
8a}	den,}
8r	.
{8cc#	{der
=108	=108
[4.ee	ku2hn-
4ee]	|
8dd	-sten
=109	=109
4.dd	Hoff-
4.cc#	-nung
=110	=110
4.b	scho2n-
8dd	|
8cc#	|
8b	-stes
=111	=111
[4.ee	Ziel
4ee]	|
8g#	er-
=112	=112
4a}	-reicht.}
8r	.
4r	.
8r	.
=113	=113
4r	.
8r	.
4r	.
{8ee	{Da
=114	=114
*met(C)	*
*M4/4	*
8.ee	stu2rz-
16c#	-te
8c#	dich
8c#	ein
8.b-	grau-
16g	-sam
8e	Macht-
8c#	-wort
=115	=115
4a	nie-
4d}	-der,}
8r	.
{8a	{aus
8f	dei-
8d	-nem
=116	=116
2.c	Him-
4c	-mel
=117	=117
4.B-	nie-
16d	|
16c	|
4B-}	-der,}
4r	.
=118	=118
*M6/8	*
{4b-	{und
8b-	dein
4b-	stil-
8cc	-les
=119	=119
[4.a	Glu2ck,
8a]}	|}
8r	.
{8a	{dein
=120	=120
8cc	all-
8b-	|
8a	-zu-
8b-	-scho2-
8dd	|
8cc	-nes
=121	=121
b-q	Traum-
4.a	|
8a	-bild
8a	kehr-
8dd	-te
=122	=122
4.cc	wie-
4a}	-der}
8r	.
=123	=123
4r	.
8r	.
4r	.
{8a	{zur
=124	=124
4.dd	bes-
4.b-	-ser'n
=125	=125
4.a}	Welt,}
4r	.
8r	.
=126	=126
{4b-	{und
8a	dein
4b-	stil-
8cc	-les
=127	=127
4.a}	Glu2ck,}
4r	.
{8a	{das
=128	=128
8cc	all-
8b-	|
8a	-zu-
8b-	-scho2-
8dd	|
8cc	-ne
=129	=129
b-q	Traum-
4.a	|
8a	-bild
8a	kehr-
8dd	-te
=130	=130
4.cc	wie-
4a}	-der}
8r	.
=131	=131
4r	.
8r	.
4r	.
{8a	{zur
=132	=132
4.dd	bes-
4.b-	-ser'n
=133	=133
4.a	Welt,
8cc	aus
8b-	der
8a	es
=134	=134
4.dd	kam
4.b-	zu-
=135	=135
4.a}	-ru2ck.}
4r	.
8r	.
=136	=136
2.r	.
=137	=137
2.r	.
=138	=138
2.r	.
=139	=139
2.r	.
=140	=140
2.r	.
=141	=141
*M2/2	*
2r	.
8.r	.
{16e	{Zer-
8.cc	-ris-
16b	-sen
=142	=142
4a	sind
8g#	|
8b	nun
8.dd	al-
16cc#	-le
8.dd	su2-
16ccn	-ssen
=143	=143
bq	Ban-
4a	|
4a}	-de,}
8.r	.
{16ee	{mir
8.dd	schla2gt
16cc	kein
=144	=144
8.dd	Herz
16cc	|
4b}	mehr}
4r	.
{8.a	{auf
16b	der
=145	=145
[2cc	wei-
8cc]	|
8b	|
8a	-ten
8g#	|
=146	=146
2a}	Welt,}
8.r	.
{16g	{zer-
8.ee	-ris-
16dd	-sen
=147	=147
4..cc	sind
16b	nun
8.cc	al-
16b	-le
8.cc	su2-
16dd	-ssen
=148	=148
4ee	Ban-
4cc}	-de,}
8.r	.
{16ee	{mir
8.dd	schla2gt
16cc	kein
=149	=149
8.dd	Herz
16cc	|
2b	mehr
8.a	auf
16b	der
=150	=150
[2cc	wei-
8cc]	|
8b	|
8a	-ten
8g#	|
=151	=151
2a}	Welt,}
4r	.
{8.cc	{auf
16a	der
=152	=152
2.e	wei-
4e	-ten
=153	=153
2e}	Welt!}
2r	.
==	==
*-	*-
